tools/download-figma-icons/icons/outlined-medium/headset.svg

<svg width="24" height="24" viewBox="0 0 24 24" fill="none" xmlns="http://www.w3.org/2000/svg">
<path fill-rule="evenodd" clip-rule="evenodd" d="M19.3896 15.7874V8.21248C21.1603 8.56273 22.4998 10.128 22.4998 11.9999C22.4998 13.8719 21.1603 15.4372 19.3896 15.7874ZM13.1061 22.4998H10.8936C10.4939 22.4998 10.1676 22.1743 10.1676 21.7746C10.1676 21.3748 10.4939 21.0493 10.8936 21.0493H13.1061C13.5059 21.0493 13.8321 21.3748 13.8321 21.7746C13.8321 22.1743 13.5059 22.4998 13.1061 22.4998ZM19.3543 6.69293C19.0018 2.94372 15.8398 0 11.9999 0C8.16067 0 4.9987 2.94372 4.6462 6.69293C2.02798 7.04393 0 9.28716 0 11.9999C0 14.9556 2.40523 17.3608 5.36095 17.3608C5.77569 17.3608 6.11094 17.0248 6.11094 16.6108C6.11094 16.1961 5.77569 15.8608 5.36095 15.8608C3.23247 15.8608 1.49998 14.1291 1.49998 11.9999C1.49998 10.1279 2.84022 8.56266 4.61095 8.21242V13.6109C4.61095 14.0249 4.9462 14.3609 5.36095 14.3609C5.77569 14.3609 6.11094 14.0249 6.11094 13.6109V7.38967C6.11094 4.14221 8.75241 1.49998 11.9999 1.49998C15.2481 1.49998 17.8896 4.14221 17.8896 7.38967V18.8241C17.8896 20.0375 16.9026 21.0245 15.6883 21.0245H15.1926C14.8828 20.1673 14.0691 19.5493 13.1061 19.5493H10.8936C9.6659 19.5493 8.66766 20.5475 8.66766 21.7745C8.66766 23.0015 9.6659 23.9998 10.8936 23.9998H13.1061C14.0691 23.9998 14.8828 23.3818 15.1926 22.5245H15.6883C17.7291 22.5245 19.3896 20.8648 19.3896 18.8241V17.3083C21.992 16.9423 23.9998 14.7014 23.9998 11.9999C23.9998 9.28716 21.9725 7.04393 19.3543 6.69293Z" fill="black"/>
</svg>

<svg width="24" height="24" viewBox="0 0 24 24" fill="none" xmlns="http://www.w3.org/2000/svg"><path fill-rule="evenodd" clip-rule="evenodd" d="M19.39 15.787V8.212A3.867 3.867 0 0 1 22.5 12a3.867 3.867 0 0 1-3.11 3.787ZM13.106 22.5h-2.212a.727.727 0 0 1-.726-.725c0-.4.326-.726.726-.726h2.212a.726.726 0 0 1 0 1.451Zm6.248-15.807C19.002 2.943 15.84 0 12 0 8.16 0 4.999 2.944 4.646 6.693A5.364 5.364 0 0 0 0 12a5.367 5.367 0 0 0 5.36 5.36.75.75 0 1 0 0-1.5A3.865 3.865 0 0 1 1.501 12a3.868 3.868 0 0 1 3.111-3.788v5.399a.75.75 0 1 0 1.5 0V7.39A5.896 5.896 0 0 1 12 1.5a5.896 5.896 0 0 1 5.89 5.89v11.434c0 1.213-.987 2.2-2.202 2.2h-.495a2.223 2.223 0 0 0-2.087-1.475h-2.212a2.228 2.228 0 0 0-2.226 2.226c0 1.227.998 2.225 2.226 2.225h2.212c.963 0 1.777-.618 2.087-1.476h.495a3.705 3.705 0 0 0 3.702-3.7v-1.516A5.368 5.368 0 0 0 24 12c0-2.713-2.027-4.956-4.646-5.307Z" fill="currentColor"/></svg>
